X: 4187
T: BOB WITH THE ONE HORN
%R: reel
B: James Kerr "Merry Melodies" v.4 p.21 #187
Z: 2016 John Chambers <jc:trillian.mit.edu>
M: C|
L: 1/8
K: Gm
|:\
DGGF DGGA | F2(AF) cFAF |\
DGGF DGGg | fdcA (BG)G2 :|\
g2(bg) dgbg | f2(af) cfaf |
g2bg dgbg | agfa g2(ga) |\
(3(bag) (3(agf) gfgd | AFFA cAFA |\
DGGF DGGg | fdcA (BG)G2 |]

%%sep 1 1 500
%%sep 1 1 500

